svgs/thin/message.svg

<svg xmlns="http://www.w3.org/2000/svg" viewBox="0 0 512 512"><!--! Font Awesome Pro 6.6.0 by @fontawesome - https://fontawesome.com License - https://fontawesome.com/license (Commercial License) Copyright 2024 Fonticons, Inc. --><path d="M160 400c8.8 0 16 7.2 16 16l0 80 123.7-92.8c2.8-2.1 6.1-3.2 9.6-3.2L448 400c26.5 0 48-21.5 48-48l0-288c0-26.5-21.5-48-48-48L64 16C37.5 16 16 37.5 16 64l0 288c0 26.5 21.5 48 48 48l96 0zM0 64C0 28.7 28.7 0 64 0L448 0c35.3 0 64 28.7 64 64l0 288c0 35.3-28.7 64-64 64l-138.7 0L185.6 508.8c-4.8 3.6-11.3 4.2-16.8 1.5s-8.8-8.2-8.8-14.3l0-64 0-16-16 0-80 0c-35.3 0-64-28.7-64-64L0 64z"/></svg>

<svg xmlns="http://www.w3.org/2000/svg" viewBox="0 0 512 512"><!--! Font Awesome Pro 6.4.2 by @fontawesome - https://fontawesome.com License - https://fontawesome.com/license (Commercial License) Copyright 2023 Fonticons, Inc. --><path d="M160 400c8.8 0 16 7.2 16 16v80l123.7-92.8c2.8-2.1 6.1-3.2 9.6-3.2H448c26.5 0 48-21.5 48-48V64c0-26.5-21.5-48-48-48H64C37.5 16 16 37.5 16 64V352c0 26.5 21.5 48 48 48h96zM0 64C0 28.7 28.7 0 64 0H448c35.3 0 64 28.7 64 64V352c0 35.3-28.7 64-64 64H309.3L185.6 508.8c-4.8 3.6-11.3 4.2-16.8 1.5s-8.8-8.2-8.8-14.3V432 416H144 64c-35.3 0-64-28.7-64-64V64z"/></svg>
